!!!OTL: Der Appenzeller Kuhreyen.
!!!ARE: Europa, Mitteleuropa, Deutschland
!!!SCT: A0484A
!!!TXL: @@DE
!!!YEM: Copyright 1995, estate of Helmut Schaffrath.
**kern	**text
!! Mixed meters:  4/2; 3/2; 6/2
*M4/2	*
*met(c|)	*
*clefC4	*
*k[b-]	*
*F:	*
=1	=1
{1F	Lo-
2.A	-be,
4B-	.
=2	=2
2c	lo-
2c	-be
1c	⁊c.
=3	=3
2c	.
1c	.
4B-	.
4A	.
=4	=4
*M6/2	*
2B-	.
2c	.
0G	.
=5||	=5||
*M3/2	*
1c	.
2A	.
=6	=6
1B-	.
2G	.
=7	=7
1A	.
2F	.
=8	=8
2G	.
2G	.
2E}	.
=9	=9
*M4/2	*
{2F	.
2E	.
!LO:TX:a:t=P:1c, 2r in the source:problem	!
1C	.
=10||	=10||
*M3/2	*
2.F	.
4G	.
4A	.
4B-	.
=11	=11
*M4/2	*
1c	.
2B-	.
2G	.
=12	=12
1c	.
2B-	.
2G	.
=13	=13
1c	.
2B-	.
2G	.
=14	=14
2A/	.
2F	.
2G	.
2E	.
=15	=15
*M3/2	*
2F	.
4E	.
4D	.
2C}	.
=16	=16
{2.F	.
4G	.
4A	.
4B-	.
=17	=17
1c	.
2A	.
=18	=18
1c	.
2A	.
=19	=19
1c	.
2A	.
=20	=20
2B-	.
2G	.
2A/	.
=21	=21
2F	.
1G	.
=22	=22
2E	.
2F	.
2G	.
=23	=23
1C	.
2r}	.
=24	=24
{2.F	.
4G	.
4A	.
4B-	.
=25	=25
2.c	.
4B-	.
4G	.
4A/	.
=26	=26
*M4/2	*
4B-	.
4A	.
1F	.
2r	.
=27	=27
*M3/2	*
2.c	.
4B-	.
4G	.
4A/	.
=28	=28
*M4/2	*
4B-	.
4A	.
1F	.
2r	.
=29	=29
*M3/2	*
2.c	.
4B-	.
4G	.
4A/	.
=30	=30
*M6/2	*
2B-	.
2A	.
1F	.
2r	.
2F}	.
=31	=31
*M4/2	*
{4G	.
4A/	.
2B-	.
4G	.
4B-	.
2A	.
=32	=32
!LO:TX:a:t=P:0f in the source:problem	!
!LO:N:vis=0	!
1F	.
!LO:TX:a:t=P:2r in the source:problem	!
!LO:N:vis=2	!
1r	.
=33	=33
*M3/2	*
2c	.
2A	.
2F	.
=34	=34
2G	.
2E	.
2C	.
=35	=35
2c	.
2A	.
2F	.
=36	=36
2G	.
2E	.
2C	.
=37	=37
2c	.
4G	.
4A	.
4B-	.
4A	.
=38	=38
1F	.
2r}	.
=39	=39
{2F	.
4G	.
4B-	.
2A	.
=40	=40
2F	.
2c	.
2B-	.
=41	=41
2G	.
2A/	.
2F	.
=42	=42
1c	.
2B-	.
=43	=43
2G	.
2A/	.
2F	.
=44	=44
2G	.
2E	.
2C	.
=45	=45
2.c	.
4B-	.
2A	.
=46	=46
*M4/2	*
1G	.
!LO:TX:a:t=P:1f in the source:problem	!
!LO:N:vis=1	!
2F	.
2r}	.
=47	=47
*M3/2	*
{1F	.
2F	.
=48	=48
2.F	.
4G	.
4A	.
4B-	.
=49	=49
1c	.
2c	.
=50	=50
1c	.
4B-	.
4A	.
=51	=51
*M6/2	*
2B-	.
2c	.
1A	.
1F	.
=52||	=52||
*M4/2	*
2r	.
2c	.
2B-	.
2G	.
=53	=53
2A/	.
2F	.
2G	.
2E	.
=54	=54
0C}	.
=55||	=55||
{2r	.
2c	.
2B-	.
2G	.
=56	=56
2A/	.
2F	.
4G	.
4A	.
4B-	.
4A	.
=57	=57
2F	.
2G	.
2E	.
2C	.
=58	=58
2c	.
2B-	.
4G	.
4A/	.
4B-	.
4A	.
=59	=59
2F	.
2G	.
1E	.
=60	=60
1C	.
2r}	.
{2C	.
=61	=61
1F	.
2r	.
2C	.
=62	=62
1F	.
2r	.
2C	.
=63	=63
1F	.
2r	.
2F	.
=64	=64
1B-	.
2r	.
2F	.
=65	=65
1B-	.
2r	.
2F	.
=66	=66
1B-	.
2r}	.
=||	=||
{2F	.
=67	=67
!LO:TX:a:t=P:invisible tail:problem	!
4F	.
4G	.
4A	.
4B-	.
1c	.
=68	=68
2B-	.
2G	.
2A/	.
2F	.
=69	=69
1c	.
2A	.
2F	.
=70	=70
2G	.
2E	.
2C	.
2c	.
=71	=71
4c	.
4B-	.
2A/	.
2F	.
2A/	.
=72	=72
1G	.
1F}	.
=73||	=73||
{2r	.
2F	.
2.A	.
4B-	.
=74	=74
2c	.
2c	.
1c	.
=75	=75
2c	.
1c	.
4B-	.
4A	.
=76	=76
2G	.
1c	.
2B-	.
=77	=77
2G	.
2c	.
2B-	.
2G	.
=78	=78
2A/	.
2F	.
2G	.
2E	.
=79	=79
2C	.
2c	.
2B-	.
2G}	.
=80	=80
{2A/	.
2F	.
2G	.
2E	.
=81	=81
1C	.
2r	.
2c	.
=82	=82
2B-	.
2G	.
=|	=|
2A/	.
1F	.
=83-	=83-
.	.
2A/	.
1G	.
=84	=84
0F;/ll}	.
==	==
!!!GTL: Gemischter Inhalt
!!!AGN: Romanze, Ballade, Lied
!! Rhaw Bicinia 1545 II No. 84.
!!!ONB: ESAC (Essen Associative Code) Database: ALTDEU
!!!AMT: irregular
!!!AIN: vox
!!!EED: Helmut Schaffrath
!!!EEV: 1.0
!!!RDF**kern: l = terminal long
!!!URL-scan: https://rosdok.uni-rostock.de/mcrviewer/recordIdentifier/rosdok_ppn738218359/iview2/phys_0671.iview2?x=-1272.8135649766991&y=1560.1409730347805&scale=0.3197610882076923&rotation=0&layout=singlePageLayout&logicalDiv=log_0018
!!!ENC: Anna Maria Matuszewska
!!!EEV: 2024/19/03
*-	*-
